build/img/github.svg

<svg width="21" height="20" viewBox="0 0 21 20" fill="none" xmlns="http://www.w3.org/2000/svg">
<path d="M9.24766 0C9.75193 0 10.2562 0 10.7605 0C10.8459 0.0244002 10.9272 0.0569337 11.0126 0.0650671C15.1362 0.51647 18.4303 3.24522 19.5933 7.21838C19.7885 7.87719 19.8699 8.56852 20.0041 9.2436C20.0041 9.74786 20.0041 10.2521 20.0041 10.7564C19.9797 10.8703 19.9471 10.9801 19.9309 11.0939C19.3941 15.0346 17.2834 17.7877 13.6194 19.2924C12.7206 19.6625 11.7161 19.7723 10.7564 20C10.2521 20 9.74786 20 9.2436 20C9.14599 19.9756 9.04839 19.939 8.94673 19.9309C4.9939 19.5323 1.61854 16.7751 0.45547 12.9524C0.244002 12.2407 0.150468 11.4925 0 10.7564C0 10.2521 0 9.74786 0 9.2436C0.0244002 9.12973 0.0569337 9.01993 0.0732005 8.90606C0.658804 4.74583 2.93615 1.94388 6.88085 0.524603C7.63318 0.252135 8.45466 0.170801 9.24766 0ZM11.5494 13.7129C12.0171 14.27 12.0862 14.8882 12.074 15.5388C12.0618 16.1 12.0659 16.6653 12.0659 17.2265C12.0659 17.9667 12.257 18.0968 12.9484 17.8365C16.649 16.4335 18.8125 12.68 18.2269 8.66612C17.5803 4.20496 13.1802 0.980073 8.74339 1.71614C2.47662 2.75722 -0.439203 9.939 3.34282 15.0346C4.33916 16.3766 5.6405 17.3241 7.21838 17.8894C7.53152 18.0033 7.86092 18.0236 7.91379 17.621C7.97479 17.133 7.93005 16.6328 7.93005 16.1488C7.65352 16.1651 7.44612 16.1814 7.23871 16.1895C6.19357 16.2424 5.46564 15.8316 5.03863 14.8272C4.86783 14.4286 4.50183 14.1074 4.19683 13.7698C4.09516 13.656 3.92029 13.6112 3.77796 13.538C3.82676 13.4526 3.87963 13.3632 3.92843 13.2778C4.19683 13.3184 4.51403 13.2778 4.71736 13.412C5.05083 13.6316 5.35584 13.9325 5.59577 14.2578C6.12037 14.9614 6.85238 15.2257 7.66165 14.9288C7.78365 14.8841 7.92599 14.7824 7.97885 14.6726C8.12932 14.3595 8.23912 14.026 8.36926 13.6926C8.21879 13.6682 8.04392 13.6356 7.86905 13.6072C5.02237 13.1314 3.68442 9.90647 5.3477 7.54778C5.44124 7.41358 5.4453 7.20618 5.45344 7.03131C5.48597 6.49044 5.48597 5.94551 5.52664 5.4087C5.54697 5.14437 5.7259 5.00203 5.99431 5.10777C6.54331 5.31924 7.07605 5.56324 7.62505 5.7747C7.81619 5.84791 8.04392 5.91297 8.23505 5.87637C9.4144 5.63237 10.5815 5.63237 11.7609 5.87637C11.952 5.91704 12.1797 5.85604 12.3709 5.78284C12.9199 5.57544 13.4526 5.32737 14.0016 5.11183C14.266 5.01017 14.453 5.13623 14.4734 5.40464C14.5181 5.94551 14.5262 6.48638 14.5506 7.02725C14.5588 7.17771 14.5222 7.37292 14.5994 7.47458C15.2094 8.24319 15.3477 9.12566 15.2989 10.0691C15.2054 11.8544 14.3148 13.0256 12.6556 13.4852C12.3139 13.5746 11.9642 13.6275 11.5494 13.7129Z" fill="#8B8B8B"/>
</svg>

<svg width="21" height="20" fill="none" xmlns="http://www.w3.org/2000/svg"><path d="M9.248 0h1.513c.085.024.166.057.252.065 4.123.451 7.417 3.18 8.58 7.153.195.66.277 1.35.411 2.026v1.512c-.024.114-.057.224-.073.338-.537 3.94-2.648 6.694-6.312 8.198-.898.37-1.903.48-2.863.708H9.244c-.098-.024-.196-.061-.297-.07a9.945 9.945 0 01-8.492-6.978C.244 12.241.15 11.492 0 10.756V9.244c.024-.114.057-.224.073-.338C.66 4.746 2.936 1.944 6.881.525 7.633.252 8.455.17 9.248 0zm2.301 13.713c.468.557.537 1.175.525 1.826-.012.561-.008 1.126-.008 1.688 0 .74.191.87.882.61 3.701-1.404 5.864-5.157 5.279-9.17C17.58 4.204 13.18.98 8.743 1.716c-6.266 1.04-9.182 8.222-5.4 13.318.996 1.342 2.298 2.29 3.875 2.854.314.114.643.135.696-.268.06-.488.016-.988.016-1.472-.276.016-.484.032-.691.04-1.045.053-1.773-.357-2.2-1.362-.171-.398-.537-.72-.842-1.057-.102-.114-.277-.159-.419-.232l.15-.26c.269.04.586 0 .79.134.333.22.638.52.878.846.524.703 1.256.968 2.066.67.122-.044.264-.146.317-.255.15-.313.26-.647.39-.98-.15-.025-.325-.057-.5-.086a3.854 3.854 0 01-2.521-6.06c.093-.133.097-.34.105-.516.033-.54.033-1.085.074-1.622.02-.265.199-.407.467-.301.55.211 1.082.455 1.631.667.191.073.419.138.61.101a8.583 8.583 0 013.526 0c.191.041.419-.02.61-.093.549-.208 1.082-.456 1.63-.671.265-.102.452.024.472.293.045.54.053 1.081.078 1.622.008.15-.029.346.048.448.61.768.749 1.65.7 2.594-.094 1.785-.984 2.957-2.643 3.416-.342.09-.692.143-1.107.228z" fill="#8B8B8B"/></svg>
